public/icons/copy.svg

<svg width="24" height="24" viewBox="0 0 24 24" fill="none" xmlns="http://www.w3.org/2000/svg">
<path d="M18 15C19.6569 15 21 13.6569 21 12V6C21 4.34315 19.6569 3 18 3H14C12.3431 3 11 4.34315 11 6V7.7H11.5C13.1569 7.7 14.5 9.04315 14.5 10.7V15H18Z" fill="#667185"/>
<path d="M6 9C4.34315 9 3 10.3431 3 12V18C3 19.6569 4.34315 21 6 21H10C11.6569 21 13 19.6569 13 18V12C13 10.3431 11.6569 9 10 9H6Z" fill="#667185"/>
</svg>

<svg xmlns="http://www.w3.org/2000/svg" width="24" height="24" fill="none"><path fill="#667185" d="M18 15a3 3 0 0 0 3-3V6a3 3 0 0 0-3-3h-4a3 3 0 0 0-3 3v1.7h.5a3 3 0 0 1 3 3V15z"/><path fill="#667185" d="M6 9a3 3 0 0 0-3 3v6a3 3 0 0 0 3 3h4a3 3 0 0 0 3-3v-6a3 3 0 0 0-3-3z"/></svg>
